src/svg-icons/svg/room-phone.svg

<?xml version="1.0" encoding="UTF-8" standalone="no"?>
<svg width="32px" height="32px" viewBox="0 0 32 32" version="1.1" xmlns="http://www.w3.org/2000/svg" xmlns:xlink="http://www.w3.org/1999/xlink">
    <!-- Generator: Sketch 3.7.2 (28276) - http://www.bohemiancoding.com/sketch -->
    <title>Artboard 1</title>
    <desc>Created with Sketch.</desc>
    <defs></defs>
    <g id="Page-1" stroke="none" stroke-width="1" fill="none" fill-rule="evenodd">
        <g id="Artboard-1" fill="#000000">
            <path d="M9.39376242,9.4608718 C7.79489803,10.8998498 7.58676657,13.4129624 8.92869245,15.090039 C9.16031531,15.5108384 10.3049771,16.8488454 12.9396933,19.4835615 C15.5745735,22.1184417 16.9105629,23.2614093 17.4072072,23.5441108 L17.3236979,23.4867313 C18.9834156,24.8469683 21.5180831,24.6342966 22.9623956,23.029505 L24.7657337,21.0257959 L25.1465429,20.6026746 L24.7440213,20.200153 L21.8694029,17.3255347 L21.5040078,16.9601395 L21.0884725,17.2673165 L19.0222065,18.7947666 C18.8399743,18.9294785 18.5317041,18.9067636 18.3723686,18.747428 L13.6758393,14.0508988 C13.5170375,13.892097 13.494336,13.582553 13.6285008,13.4010609 L15.1559509,11.3347949 L15.4631278,10.9192596 L15.0977327,10.5538645 L12.2231143,7.67924611 L11.8205927,7.27672451 L11.3974714,7.65753369 L9.39376242,9.4608718 Z M22.0704426,22.2267473 C21.0522462,23.3580766 19.2448694,23.5097248 18.0843487,22.5586094 L18.0008395,22.5012299 C17.9298572,22.4608251 17.6860349,22.2802554 17.2236444,21.8846704 C16.4218863,21.1987492 15.2941997,20.1410117 13.7882214,18.6350334 C12.2822472,17.1290591 11.2238752,16.0006177 10.5368864,15.1975894 C10.1405518,14.7343098 9.95926437,14.4896101 9.91833767,14.4178685 C8.92127146,13.1600583 9.06977823,11.3668925 10.1965201,10.3528248 L11.7585449,8.92633057 L13.8760986,11.0314941 L12.6635363,12.6877282 C12.6635363,12.6877282 12.2480346,14.3201504 12.8273112,14.899427 L17.5238404,19.5959562 C18.1035262,20.1756419 19.0759815,20.2472972 19.7355391,19.7597311 L21.3738403,18.5465698 L23.5023804,20.6779785 L22.0704426,22.2267473 Z" id="Combined-Shape"></path>
        </g>
    </g>
</svg>

<svg width="32" height="32" viewBox="0 0 32 32" xmlns="http://www.w3.org/2000/svg"><path d="M11.397 7.658L9.394 9.46c-1.6 1.44-1.807 3.953-.465 5.63.23.42 1.372 1.76 4.01 4.394 2.632 2.634 3.97 3.777 4.464 4.06l-.083-.057c1.66 1.36 4.195 1.147 5.64-.457l1.804-2.004.38-.423-.402-.403-2.875-2.874-.366-.366-.415.307-2.066 1.528a.535.535 0 0 1-.65-.048l-4.697-4.696a.537.537 0 0 1-.047-.65l1.526-2.062.307-.416-.366-.365L12.22 7.68l-.402-.404-.423.38zm.803.89l-.825-.02 2.874 2.874-.06-.78-1.53 2.066a1.734 1.734 0 0 0 .164 2.21l4.697 4.698c.58.58 1.553.65 2.213.164l2.066-1.528-.78-.058 2.873 2.875-.02-.83-1.805 2.004c-1.02 1.13-2.827 1.283-3.988.332L18 22.5c-.07-.04-.314-.22-.776-.615-.802-.686-1.93-1.744-3.436-3.25s-2.564-2.634-3.25-3.437c-.397-.464-.58-.708-.62-.78-.997-1.258-.848-3.05.28-4.065L12.2 8.55z" fill-rule="evenodd"/></svg>
